X: 263
T: Nora Flanagan's
C: B.Black 1/08
N: 142252
M: 6/8
L: 1/8
Q: 1/4=160
R: jig
K: A
D |"A"EAA "D"FAA |"E7"GBd "A"cBA|"A"cee "Bm"dcB|"F#m"AFE F2D|
"A"EAA "D"FAA |"E7"GBd  "A"cea| "Bm"fdB "A"cde|"E7"dBG "A" A2 :|
A| "A"c^Bc "Bm"=BFF | "E"EGB "A"cAA | "A"aga "F#m"fec|"A"Ace "D"f2e|
"A"aga "E"bge | "D"def "A"ecA | "E"Bee "A"cee | "E7"dcB "A"A2 :|
%%%%%%%%%%%%%%%%%%%%%%%%%%%%%%
